src/images/single-assets/ORBS.svg

<svg xmlns="http://www.w3.org/2000/svg" width="96" height="96" fill="none" viewBox="0 0 96 96"><circle cx="48" cy="48" r="48" fill="#fff"/><g clip-path="url(#clip0)"><path fill="#3F4971" d="M33.5233 57.4937C33.5136 57.6507 33.4556 57.8009 33.3574 57.9238C33.2592 58.0467 33.1254 58.1363 32.9744 58.1804C32.8234 58.2246 32.6625 58.2211 32.5135 58.1704C32.3646 58.1198 32.2349 58.0245 32.1421 57.8974L21.1346 47.5646C21.0035 47.471 20.9023 47.3414 20.8432 47.1915C20.7842 47.0417 20.7698 46.8779 20.8018 46.72C20.8338 46.5621 20.9109 46.4169 21.0237 46.3018C21.1365 46.1868 21.2802 46.1069 21.4374 46.0718L36.8436 39.8615C37.5608 39.5746 37.9911 39.9571 37.7999 40.7115L33.5233 57.4937Z"/><path fill="#546095" d="M24.4283 67.3161C23.8387 67.8474 23.249 67.6136 23.1108 66.8433L20.0933 50.0505C19.9552 49.2855 20.3058 49.0943 20.869 49.6255L31.3452 59.459C31.4789 59.5788 31.5852 59.7261 31.6568 59.8908C31.7284 60.0554 31.7636 60.2336 31.7601 60.4131C31.7566 60.5926 31.7143 60.7693 31.6363 60.931C31.5583 61.0927 31.4463 61.2357 31.308 61.3502L24.4283 67.3161Z"/><path fill="#546095" d="M37.0616 36.5195C37.1807 36.6348 37.2676 36.7793 37.3136 36.9386C37.3596 37.0978 37.3632 37.2663 37.324 37.4274C37.2848 37.5885 37.2042 37.7365 37.0902 37.8568C36.9761 37.9771 36.8326 38.0655 36.6738 38.1133L21.3207 44.2811C20.6035 44.5733 20.2582 44.212 20.5026 43.4789L26.8085 26.4417C26.8356 26.2875 26.9093 26.1453 27.0198 26.0344C27.1302 25.9234 27.2721 25.849 27.4261 25.8212C27.5802 25.7934 27.7391 25.8136 27.8813 25.8789C28.0236 25.9443 28.1424 26.0517 28.2216 26.1867L37.0616 36.5195Z"/><path fill="#546095" d="M20.9753 64.4685C21.1134 65.2335 20.885 65.3291 20.444 64.6757L14.5312 55.4373C14.3251 55.0821 14.2228 54.6762 14.236 54.2658C14.2491 53.8554 14.3772 53.4569 14.6056 53.1157L17.2618 49.5298C17.724 48.9029 18.2128 48.9985 18.3509 49.7901L20.9753 64.4685Z"/><path fill="#546095" d="M19.1052 42.4431C18.8343 43.1763 18.4093 43.1656 18.1649 42.4431L16.1249 36.3125C16.0126 35.9115 16.0086 35.4879 16.1131 35.0848C16.2176 34.6817 16.427 34.3135 16.7199 34.0175L23.9821 27.3822C24.5558 26.851 24.8055 27.0263 24.5133 27.7594L19.1052 42.4431Z"/><path fill="#546095" d="M17.1875 44.8127C17.3016 45.2305 17.3256 45.6677 17.2578 46.0954C17.19 46.5232 17.0321 46.9316 16.7944 47.2936L14.7119 50.1252C14.2444 50.7521 13.931 50.6564 14.0107 49.8543L15.0094 40.0793C15.0891 39.3036 15.3547 39.2718 15.5991 40.0155L17.1875 44.8127Z"/><path fill="#546095" d="M25.3739 22.8611C25.6289 23.1639 25.3739 23.8386 24.8002 24.3592L21.533 27.3396C20.9593 27.8708 20.8689 27.7752 21.3311 27.1536L24.0618 23.4349C24.5239 22.8292 25.1136 22.5636 25.3739 22.8611Z"/><path fill="#546095" d="M45.9548 74.7378C45.8965 74.8872 45.7959 75.0163 45.6653 75.1093C45.5347 75.2023 45.3798 75.2551 45.2196 75.2613C45.0594 75.2675 44.9009 75.2268 44.7634 75.1442C44.626 75.0616 44.5157 74.9407 44.4461 74.7963L35.9195 62.3119C35.8083 62.2005 35.7338 62.0576 35.7062 61.9026C35.6787 61.7476 35.6993 61.5878 35.7652 61.4448C35.8312 61.3019 35.9394 61.1826 36.0753 61.103C36.2112 61.0234 36.3682 60.9873 36.5251 60.9997L53.658 59.22C54.4283 59.1403 54.7205 59.6238 54.3486 60.2825L45.9548 74.7378Z"/><path fill="#546095" d="M42.3847 74.754C42.8203 75.3915 42.5812 75.7156 41.8534 75.4659L25.7884 69.9728C25.0553 69.7231 24.9331 69.1015 25.5228 68.5915L32.429 62.6256C32.5619 62.5061 32.7191 62.4168 32.8897 62.3638C33.0604 62.3108 33.2405 62.2954 33.4176 62.3186C33.5948 62.3418 33.7648 62.4031 33.9161 62.4983C34.0673 62.5935 34.1961 62.7203 34.2937 62.87L42.3847 74.754Z"/><path fill="#15F9FF" d="M54.0139 56.3195C54.5451 56.9092 54.3007 57.4564 53.5304 57.536L36.1426 59.3423C35.98 59.3796 35.8103 59.3718 35.6518 59.32C35.4932 59.2682 35.3517 59.1741 35.2426 59.048C35.1334 58.9219 35.0605 58.7684 35.0319 58.6041C35.0033 58.4398 35.02 58.2707 35.0801 58.1151L39.447 41.0939C39.6382 40.3395 40.212 40.2067 40.7167 40.7964L54.0139 56.3195Z"/><path fill="#546095" d="M66.5087 70.9125C66.6289 71.0109 66.7166 71.1434 66.7602 71.2925C66.8038 71.4415 66.8013 71.6003 66.753 71.748C66.7048 71.8956 66.613 72.0253 66.4897 72.1198C66.3665 72.2144 66.2176 72.2695 66.0624 72.2779L48.3665 75.9966C47.6121 76.1613 47.304 75.7416 47.7024 75.0669L56.0378 60.7497C56.106 60.5987 56.2131 60.4684 56.348 60.372C56.4828 60.2756 56.6408 60.2166 56.8059 60.201C56.9709 60.1853 57.1371 60.2136 57.2877 60.2829C57.4383 60.3522 57.5679 60.4601 57.6634 60.5957L66.5087 70.9125Z"/><path fill="#546095" d="M38.0497 80.4913C37.6804 80.669 37.2682 80.7384 36.8611 80.6914C36.4539 80.6444 36.0685 80.4829 35.7494 80.2257L27.5416 72.9263C26.9572 72.3951 27.0847 72.1985 27.8178 72.4482L41.8747 77.2294C42.6078 77.4844 42.6503 77.9891 41.965 78.3557L38.0497 80.4913Z"/><path fill="#546095" d="M57.1321 81.187C56.7992 81.4332 56.4068 81.5866 55.9952 81.6314C55.5835 81.6762 55.1674 81.6108 54.7893 81.442L49.0624 78.5095C48.3718 78.1536 48.4249 77.7339 49.1846 77.5745L64.4261 74.3445C65.1805 74.1851 65.3133 74.4614 64.713 74.9501L57.1321 81.187Z"/><path fill="#546095" d="M41.1681 81.5483C40.3925 81.5111 40.3234 81.1818 41.0034 80.8099L44.0687 79.1577C44.4584 78.9742 44.883 78.8763 45.3137 78.8709C45.7444 78.8654 46.1713 78.9523 46.5656 79.1258L51.0493 81.4208C51.74 81.7715 51.6709 82.0318 50.8953 81.9946L41.1681 81.5483Z"/><path fill="#546095" d="M69.3561 74.2386C69.6164 74.5414 69.2658 75.0886 68.5805 75.4551L64.543 77.6226C63.8577 77.9892 63.7886 77.8883 64.3889 77.3942L67.7996 74.5892C68.3999 74.0951 69.1011 73.9358 69.3561 74.2386Z"/><path fill="#3F4971" d="M59.1562 56.1387C58.439 56.4256 58.0087 56.0484 58.2 55.2941L62.4872 38.5065C62.4969 38.3495 62.5549 38.1993 62.6531 38.0764C62.7513 37.9536 62.885 37.8639 63.0361 37.8198C63.1871 37.7756 63.348 37.7791 63.4969 37.8298C63.6459 37.8804 63.7756 37.9758 63.8684 38.1028L74.8759 48.4356C75.0071 48.5273 75.1091 48.6549 75.1698 48.803C75.2304 48.9511 75.2472 49.1135 75.2181 49.2709C75.1889 49.4283 75.1152 49.574 75.0055 49.6905C74.8959 49.8071 74.755 49.8897 74.5997 49.9284L59.1562 56.1387Z"/><path fill="#546095" d="M75.9066 45.949C76.0447 46.714 75.6941 46.9106 75.1309 46.3793L64.6494 36.5406C64.5165 36.4203 64.4109 36.2728 64.3398 36.1083C64.2687 35.9437 64.2338 35.7657 64.2373 35.5865C64.2408 35.4073 64.2828 35.2308 64.3603 35.0692C64.4378 34.9075 64.549 34.7643 64.6866 34.6493L71.5928 28.6887C72.1825 28.1575 72.7722 28.3912 72.9103 29.1562L75.9066 45.949Z"/><path fill="#546095" d="M69.1916 69.558C69.1645 69.7121 69.0908 69.8543 68.9803 69.9653C68.8699 70.0762 68.728 70.1506 68.574 70.1784C68.4199 70.2062 68.261 70.1861 68.1188 70.1207C67.9765 70.0554 67.8577 69.9479 67.7785 69.813L58.9332 59.4801C58.8141 59.3648 58.7272 59.2203 58.6812 59.0611C58.6352 58.9018 58.6316 58.7333 58.6708 58.5722C58.71 58.4112 58.7906 58.2631 58.9046 58.1428C59.0187 58.0225 59.1622 57.9341 59.321 57.8864L74.6794 51.7186C75.3966 51.4264 75.7419 51.7876 75.4975 52.5208L69.1916 69.558Z"/><path fill="#546095" d="M81.4687 40.5891C81.6736 40.9447 81.7752 41.3504 81.762 41.7605C81.7489 42.1707 81.6216 42.569 81.3943 42.9107L78.7381 46.4966C78.2759 47.1235 77.7871 47.0279 77.6756 46.2416L75.0193 31.5419C74.8865 30.7769 75.115 30.6813 75.5506 31.3348L81.4687 40.5891Z"/><path fill="#546095" d="M79.8749 59.7143C79.9855 60.1154 79.9887 60.5386 79.8843 60.9414C79.7799 61.3441 79.5715 61.7124 79.2799 62.0093L72.0283 68.618C71.4546 69.1493 71.2049 68.974 71.4971 68.2408L76.9265 53.5571C77.1974 52.824 77.6224 52.8346 77.8668 53.5571L79.8749 59.7143Z"/><path fill="#546095" d="M80.9905 55.9211C80.9109 56.6967 80.6452 56.7233 80.4009 55.9848L78.8071 51.2036C78.693 50.7858 78.6691 50.3486 78.7369 49.9208C78.8046 49.4931 78.9626 49.0847 79.2002 48.7226L81.2827 45.9176C81.7449 45.2908 82.0637 45.4183 81.984 46.1886L80.9905 55.9211Z"/><path fill="#546095" d="M71.9329 72.5493C71.4707 73.1762 70.8704 73.4418 70.626 73.139C70.3817 72.8362 70.626 72.1615 71.1998 71.6408L74.4617 68.6658C75.0354 68.1346 75.131 68.2249 74.6688 68.8518L71.9329 72.5493Z"/><path fill="#3F4971" d="M60.0806 33.688C60.1908 33.8001 60.2643 33.9432 60.2914 34.0982C60.3185 34.2531 60.2978 34.4126 60.2321 34.5555C60.1664 34.6985 60.0588 34.818 59.9236 34.8984C59.7883 34.9787 59.6319 35.0161 59.4749 35.0054L42.3421 36.7798C41.5718 36.8648 41.2796 36.3761 41.6515 35.7173L50.0452 21.2726C50.1041 21.1235 50.2052 20.9949 50.3361 20.9024C50.467 20.8099 50.622 20.7576 50.7822 20.752C50.9424 20.7463 51.1008 20.7876 51.2379 20.8706C51.3749 20.9537 51.4848 21.0749 51.554 21.2195L60.0806 33.688Z"/><path fill="#546095" d="M63.5975 33.3749C63.4643 33.4941 63.3068 33.5831 63.1359 33.6356C62.9651 33.6882 62.7848 33.7032 62.6076 33.6794C62.4304 33.6557 62.2605 33.5939 62.1095 33.4982C61.9584 33.4025 61.8299 33.2753 61.7328 33.1252L53.6153 21.2517C53.1744 20.6089 53.4187 20.2849 54.1465 20.5399L70.2062 26.0277C70.9394 26.2774 71.0615 26.8989 70.4719 27.4089L63.5975 33.3749Z"/><path fill="#546095" d="M56.5532 54.9062C56.3619 55.6606 55.7882 55.7987 55.2835 55.2037L42.0023 39.6753C41.471 39.0803 41.7101 38.5331 42.4857 38.4534L59.8682 36.6472C60.0305 36.6118 60.1993 36.6208 60.3569 36.6733C60.5145 36.7258 60.6551 36.8197 60.7638 36.9453C60.8725 37.0709 60.9454 37.2234 60.9748 37.3869C61.0041 37.5504 60.9889 37.7188 60.9307 37.8743L56.5532 54.9062Z"/><path fill="#546095" d="M39.9621 35.2499C39.8933 35.4007 39.7859 35.5305 39.6507 35.6264C39.5155 35.7222 39.3575 35.7806 39.1924 35.7957C39.0274 35.8108 38.8614 35.7821 38.7111 35.7123C38.5608 35.6426 38.4315 35.5344 38.3365 35.3987L29.4912 25.0871C29.371 24.9887 29.2833 24.8563 29.2397 24.7072C29.1961 24.5581 29.1986 24.3993 29.2469 24.2517C29.2951 24.104 29.3869 23.9744 29.5101 23.8798C29.6334 23.7853 29.7823 23.7302 29.9374 23.7218L47.6334 20.003C48.3877 19.8437 48.6959 20.2634 48.2974 20.9327L39.9621 35.2499Z"/><path fill="#546095" d="M54.1254 18.7495C53.3922 18.4998 53.3497 17.9898 54.035 17.6232L57.9504 15.4982C58.32 15.3217 58.7319 15.253 59.1387 15.3C59.5456 15.347 59.931 15.5078 60.2507 15.7638L68.4585 23.0632C69.0429 23.5945 68.9154 23.791 68.1822 23.5413L54.1254 18.7495Z"/><path fill="#546095" d="M31.5791 21.6556C30.8194 21.8149 30.6919 21.544 31.2922 21.0499L38.8678 14.8131C39.2007 14.5669 39.5931 14.4135 40.0047 14.3687C40.4164 14.3239 40.8325 14.3892 41.2106 14.5581L46.9375 17.4906C47.6281 17.8465 47.575 18.2662 46.8153 18.4256L31.5791 21.6556Z"/><path fill="#546095" d="M51.9258 16.8477C51.5344 17.0251 51.1097 17.1169 50.68 17.1169C50.2503 17.1169 49.8256 17.0251 49.4342 16.8477L44.9504 14.5793C44.2811 14.2286 44.3289 13.9683 45.0992 14.0002L54.8317 14.4571C55.6073 14.489 55.6817 14.8236 54.9964 15.1902L51.9258 16.8477Z"/><path fill="#546095" d="M28.2002 21.4375C27.5999 21.9316 26.8987 22.0909 26.6437 21.7881C26.3887 21.4853 26.7499 20.9062 27.414 20.5503L31.4568 18.3775C32.1421 18.0109 32.2112 18.1119 31.6109 18.6059L28.2002 21.4375Z"/><path fill="#546095" d="M23.0313 70.7641C23.3288 70.5038 23.9982 70.7641 24.5188 71.3432L27.4779 74.6263C28.0091 75.2001 27.9135 75.2957 27.2919 74.8282L23.6157 72.0816C22.9782 71.6141 22.7126 71.0244 23.0313 70.7641Z"/><path fill="#546095" d="M74.0792 26.5162C74.3767 26.2559 74.9239 26.6066 75.2851 27.2919L77.442 31.3559C77.8086 32.0466 77.7076 32.1156 77.2136 31.51L74.4245 28.0834C73.9358 27.4778 73.7817 26.75 74.0792 26.5162Z"/><path fill="#546095" d="M72.4003 23.9185C73.0219 24.386 73.2875 24.981 72.9847 25.236C72.6819 25.491 72.0178 25.236 71.4972 24.657L68.5381 21.3739C68.0069 20.8001 68.1025 20.7045 68.7241 21.172L72.4003 23.9185Z"/><path fill="#546095" d="M21.5704 67.9164C22.0644 68.522 22.2185 69.2286 21.921 69.5102C21.6235 69.7917 21.0763 69.4145 20.715 68.7292L18.5529 64.6439C18.1916 63.9373 18.2925 63.8842 18.7813 64.4686L21.5704 67.9164Z"/></g><defs><clipPath id="clip0"><rect width="68" height="68" fill="#fff" transform="translate(14 14)"/></clipPath></defs></svg>

<svg xmlns="http://www.w3.org/2000/svg" width="96" height="96" fill="none"><circle cx="48" cy="48" r="48" fill="#fff"/><g clip-path="url(#a)"><path fill="#3F4971" d="M33.523 57.494a.765.765 0 0 1-1.38.403L21.134 47.565a.835.835 0 0 1 .302-1.493l15.407-6.21c.717-.287 1.147.095.956.85z"/><path fill="#546095" d="M24.428 67.316c-.59.531-1.179.298-1.317-.473L20.093 50.05c-.138-.764.213-.956.776-.424l10.476 9.833a1.248 1.248 0 0 1-.037 1.891zM37.062 36.52a.95.95 0 0 1-.388 1.593L21.32 44.281c-.718.292-1.063-.069-.818-.802l6.305-17.037a.764.764 0 0 1 1.414-.255zM20.975 64.469c.138.765-.09.86-.531.207l-5.913-9.239a2.19 2.19 0 0 1 .075-2.321l2.656-3.586c.462-.627.95-.532 1.089.26zM19.105 42.443c-.27.733-.696.723-.94 0l-2.04-6.13a2.36 2.36 0 0 1 .595-2.296l7.262-6.635c.574-.531.823-.356.531.377zM17.188 44.813a3.05 3.05 0 0 1-.394 2.48l-2.082 2.832c-.468.627-.781.531-.701-.27l.998-9.776c.08-.775.346-.807.59-.063zM25.374 22.861c.255.303 0 .978-.574 1.498l-3.267 2.98c-.574.532-.664.436-.202-.185l2.73-3.72c.463-.605 1.053-.87 1.313-.573M45.955 74.738a.824.824 0 0 1-1.509.058L35.92 62.312A.77.77 0 0 1 36.524 61l17.133-1.78c.77-.08 1.063.404.69 1.063zM42.385 74.754c.435.637.196.962-.532.712l-16.065-5.493c-.733-.25-.855-.871-.265-1.382l6.906-5.965a1.24 1.24 0 0 1 1.865.244z"/><path fill="#15F9FF" d="M54.014 56.32c.531.59.287 1.136-.484 1.216l-17.387 1.806a.919.919 0 0 1-1.063-1.227l4.367-17.021c.191-.755.765-.887 1.27-.298z"/><path fill="#546095" d="M66.509 70.913a.77.77 0 0 1-.447 1.365l-17.695 3.719c-.755.164-1.063-.255-.665-.93l8.336-14.317a.94.94 0 0 1 1.625-.154zM38.05 80.491a2.17 2.17 0 0 1-2.3-.265l-8.208-7.3c-.585-.53-.457-.728.276-.478l14.057 4.781c.733.255.775.76.09 1.127zM57.132 81.187a2.34 2.34 0 0 1-2.343.255l-5.727-2.932c-.69-.356-.637-.776.123-.936l15.241-3.23c.754-.159.887.117.287.606zM41.168 81.548c-.776-.037-.845-.366-.165-.738l3.066-1.652a3.01 3.01 0 0 1 2.497-.032l4.483 2.295c.691.35.622.61-.154.574zM69.356 74.239c.26.302-.09.85-.775 1.216l-4.038 2.168c-.685.366-.754.265-.154-.229l3.41-2.805c.6-.494 1.302-.653 1.557-.35"/><path fill="#3F4971" d="M59.156 56.139c-.717.287-1.147-.09-.956-.845l4.287-16.787a.765.765 0 0 1 1.381-.404l11.008 10.333a.834.834 0 0 1-.276 1.492z"/><path fill="#546095" d="M75.907 45.949c.138.765-.213.962-.776.43l-10.482-9.838a1.255 1.255 0 0 1 .038-1.892l6.906-5.96c.59-.532 1.18-.298 1.317.467zM69.192 69.558a.765.765 0 0 1-1.413.255L58.932 59.48a.95.95 0 0 1 .388-1.594l15.358-6.167c.718-.293 1.063.069.819.802zM81.469 40.59a2.2 2.2 0 0 1-.075 2.32l-2.656 3.587c-.462.627-.95.53-1.062-.255l-2.657-14.7c-.133-.765.096-.86.532-.207zM79.875 59.714a2.38 2.38 0 0 1-.595 2.295l-7.252 6.609c-.573.531-.823.356-.53-.377l5.429-14.684c.27-.733.695-.722.94 0zM80.99 55.921c-.08.776-.345.802-.59.064l-1.593-4.781a3.05 3.05 0 0 1 .393-2.481l2.083-2.805c.462-.627.78-.5.701.27zM71.933 72.55c-.462.626-1.063.892-1.307.589s0-.977.574-1.498l3.262-2.975c.573-.531.669-.441.207.186z"/><path fill="#3F4971" d="M60.08 33.688a.776.776 0 0 1-.605 1.317L42.342 36.78c-.77.085-1.062-.404-.69-1.063l8.393-14.444a.824.824 0 0 1 1.509-.053z"/><path fill="#546095" d="M63.598 33.375a1.237 1.237 0 0 1-1.865-.25l-8.118-11.873c-.44-.643-.196-.967.532-.712l16.06 5.488c.732.25.855.87.265 1.38zM56.553 54.906c-.191.755-.765.893-1.27.298l-13.28-15.529c-.532-.595-.293-1.142.483-1.222l17.382-1.806a.923.923 0 0 1 1.063 1.227zM39.962 35.25a.94.94 0 0 1-1.626.149l-8.845-10.312a.77.77 0 0 1 .446-1.365l17.696-3.719c.755-.16 1.063.26.664.93zM54.125 18.75c-.733-.25-.775-.76-.09-1.127l3.915-2.125a2.18 2.18 0 0 1 2.3.266l8.209 7.3c.584.53.456.727-.277.477zM31.58 21.656c-.76.159-.888-.112-.288-.606l7.576-6.237a2.34 2.34 0 0 1 2.343-.255l5.727 2.933c.69.355.637.775-.123.935zM51.926 16.848a3.02 3.02 0 0 1-2.492 0l-4.484-2.269c-.669-.35-.621-.61.15-.579l9.732.457c.775.032.85.367.164.733zM28.2 21.438c-.6.494-1.301.653-1.556.35s.106-.882.77-1.238l4.043-2.172c.685-.367.754-.266.154.228zM23.031 70.764c.298-.26.967 0 1.488.58l2.959 3.282c.531.574.435.67-.186.202l-3.676-2.746c-.638-.468-.903-1.058-.585-1.318M74.08 26.516c.297-.26.844.09 1.205.776l2.157 4.064c.367.69.266.76-.228.154l-2.79-3.427c-.488-.605-.642-1.333-.345-1.567M72.4 23.919c.622.467.887 1.062.585 1.317s-.967 0-1.488-.579l-2.959-3.283c-.531-.574-.435-.67.186-.202zM21.57 67.916c.494.606.648 1.313.351 1.594s-.845-.096-1.206-.78l-2.162-4.086c-.361-.707-.26-.76.228-.175z"/></g><defs><clipPath id="a"><path fill="#fff" d="M14 14h68v68H14z"/></clipPath></defs></svg>
